X:1000
T:Spirits of Wine, The
R:reel
D:John Doherty: The Floating Bow
Z:id:hn-reel-1000
M:C|
L:1/8
K:A
ed | cBAc BGED | CEAc e2fg | aece a2ec | dcBA GBed |
cBAc BGED | CEAc e2fg | aece a2ec | A2AG A2 :|2 A2AG A ||
|: aga | eccB ceag | fddc dfaf | eccB ceaf | edcA BEGB |
eccB ceag | fddc dfaf | eAce dBGB |1 Aaec A :|2 Aaec A2 ||

